public/icon.svg

<?xml version="1.0" encoding="UTF-8" standalone="no"?>
<!-- Created with Inkscape (http://www.inkscape.org/) -->

<svg
   xmlns:dc="http://purl.org/dc/elements/1.1/"
   xmlns:cc="http://creativecommons.org/ns#"
   xmlns:rdf="http://www.w3.org/1999/02/22-rdf-syntax-ns#"
   xmlns:svg="http://www.w3.org/2000/svg"
   xmlns="http://www.w3.org/2000/svg"
   xmlns:sodipodi="http://sodipodi.sourceforge.net/DTD/sodipodi-0.dtd"
   xmlns:inkscape="http://www.inkscape.org/namespaces/inkscape"
   width="226.28447mm"
   height="259.66675mm"
   viewBox="0 0 226.28446 259.66675"
   version="1.1"
   id="svg8"
   inkscape:version="0.92.2 (5c3e80d, 2017-08-06)"
   sodipodi:docname="icon.svg">
  <defs
     id="defs2">
    <style
       id="style10"
       type="text/css">
   
    .fil0 {fill:black}
   
  </style>
  </defs>
  <sodipodi:namedview
     id="base"
     pagecolor="#ffffff"
     bordercolor="#666666"
     borderopacity="1.0"
     inkscape:pageopacity="0.0"
     inkscape:pageshadow="2"
     inkscape:zoom="0.59"
     inkscape:cx="422.29222"
     inkscape:cy="368.73466"
     inkscape:document-units="mm"
     inkscape:current-layer="layer1"
     showgrid="false"
     showguides="true"
     inkscape:guide-bbox="true"
     inkscape:window-width="1920"
     inkscape:window-height="1043"
     inkscape:window-x="1366"
     inkscape:window-y="0"
     inkscape:window-maximized="1"
     inkscape:snap-nodes="false" />
  <metadata
     id="metadata5">
    <rdf:RDF>
      <cc:Work
         rdf:about="">
        <dc:format>image/svg+xml</dc:format>
        <dc:type
           rdf:resource="http://purl.org/dc/dcmitype/StillImage" />
        <dc:title />
      </cc:Work>
    </rdf:RDF>
  </metadata>
  <g
     inkscape:label="Capa 1"
     inkscape:groupmode="layer"
     id="layer1"
     style="display:inline"
     transform="translate(77.306401,43.657121)">
    <path
       style="display:inline;fill:#6c59b8;fill-opacity:1;fill-rule:nonzero;stroke:none;stroke-width:0.97279525px;stroke-linecap:butt;stroke-linejoin:miter;stroke-opacity:1"
       d="m -64.673901,-41.218504 c 0,0 -65.490189,163.605814 101.758326,257.228124 C 102.79034,193.32948 148.59546,135.183 148.97807,79.361897 143.96539,95.769432 138.21575,135.91397 79.512194,173.86401 154.26663,115.91152 160.60875,19.714565 132.58341,-43.657121 142.16251,38.4988 112.40592,118.18469 45.043562,151.85381 30.40431,141.81351 31.578341,92.905986 35.42525,86.932641 l 8.602203,18.931219 -4.055687,-19.963213 c 0,0 1.904589,4.065387 7.13737,10.82816 -7.034075,-22.458052 -2.503635,-45.012525 -2.503635,-45.012525 0,0 -15.159884,18.105199 -38.6861243,28.599939 C 13.562176,80.111052 18.280832,79.11236 20.274663,78.510361 16.685964,81.164881 3.4607999,87.404354 3.4607999,87.404354 L 22.581277,83.340438 c 0,0 -14.6110358,28.479482 -9.009368,67.364322 C -31.626433,109.49735 -73.902125,45.869062 -64.67394,-41.218504 Z"
       id="path4589-8-3-3"
       inkscape:connector-curvature="0"
       sodipodi:nodetypes="cccccccccccccccccc"
       inkscape:export-xdpi="72"
       inkscape:export-ydpi="72" />
    <rect
       style="opacity:0.01000001;fill:none;stroke-width:0.27799079"
       id="rect3996"
       width="473.02338"
       height="310.4014"
       x="189.08029"
       y="-37.278458" />
  </g>
</svg>

<svg xmlns="http://www.w3.org/2000/svg" id="svg8" viewBox="0 0 226.284 259.667"><defs id="defs2"><style id="style10"/></defs><g id="layer1" transform="translate(77.306 43.657)"><path id="path4589-8-3-3" stroke-width=".973" d="M-64.674-41.219s-65.49 163.606 101.758 257.229c65.706-22.68 111.511-80.827 111.894-136.648-5.013 16.407-10.762 56.552-69.466 94.502 74.755-57.952 81.097-154.15 53.071-217.521 9.58 82.156-20.177 161.842-87.54 195.51-14.639-10.04-13.465-58.947-9.618-64.92l8.602 18.93-4.055-19.962s1.904 4.065 7.137 10.828c-7.034-22.458-2.503-45.013-2.503-45.013s-15.16 18.105-38.687 28.6c7.643-.205 12.362-1.204 14.356-1.806-3.589 2.655-16.814 8.894-16.814 8.894l19.12-4.064s-14.61 28.48-9.01 67.365C-31.625 109.497-73.901 45.869-64.673-41.22z"/><path id="rect3996" stroke-width=".278" d="M189.08-37.278h473.023v310.401H189.08z" opacity=".01"/></g></svg>
